src/Pure/16/symbolic/actions/help-contents-symbolic.svg

<?xml version="1.0" encoding="UTF-8" standalone="no"?>
<svg
   height="16"
   width="16"
   version="1.1"
   id="svg1"
   sodipodi:docname="help-contents-symbolic.svg"
   inkscape:version="1.4.2 (ebf0e940d0, 2025-05-08)"
   xmlns:inkscape="http://www.inkscape.org/namespaces/inkscape"
   xmlns:sodipodi="http://sodipodi.sourceforge.net/DTD/sodipodi-0.dtd"
   xmlns="http://www.w3.org/2000/svg"
   xmlns:svg="http://www.w3.org/2000/svg">
  <defs
     id="defs1">
     <style
        id="current-color-scheme"
        type="text/css">
        .ColorScheme-Text { color:#363636; }
     </style>
  </defs>
  <sodipodi:namedview
     id="namedview1"
     pagecolor="#ffffff"
     bordercolor="#000000"
     borderopacity="0.25"
     inkscape:showpageshadow="2"
     inkscape:pageopacity="0.0"
     inkscape:pagecheckerboard="0"
     inkscape:deskcolor="#d1d1d1"
     inkscape:zoom="49.6875"
     inkscape:cx="8"
     inkscape:cy="8"
     inkscape:window-width="1920"
     inkscape:window-height="1010"
     inkscape:window-x="0"
     inkscape:window-y="0"
     inkscape:window-maximized="1"
     inkscape:current-layer="svg1" />
  <path
     id="path1"
     style="fill:currentColor"
     class="ColorScheme-Text"
     d="M 8 0 C 3.576 0 0 3.576 0 8 C 0 12.424 3.576 16 8 16 C 12.424 16 16 12.424 16 8 C 16 3.576 12.424 0 8 0 z M 8 1 C 11.87 1 15 4.13 15 8 C 15 11.87 11.87 15 8 15 C 4.13 15 1 11.87 1 8 C 1 4.13 4.13 1 8 1 z M 8.0625 3 C 6.8105 2.976 5.49975 3.4695 5.09375 4.4375 C 4.85975 4.9755 5.087 5.9375 5.875 5.9375 C 6.335 5.9375 6.5275 5.62275 6.5625 5.34375 C 6.5885 5.13175 6.51875 4.95625 6.46875 4.78125 C 6.41175 4.58225 6.64225 4.18825 6.90625 4.03125 C 7.12725 3.90025 7.37225 3.85175 7.40625 3.84375 C 8.20125 3.64775 8.9815 4.099 9.3125 4.625 C 9.6425 5.151 9.273 5.94175 8.75 6.71875 C 8.227 7.49475 7.6845 8.3765 7.6875 9.3125 C 7.6875 9.6695 7.63425 9.7925 7.65625 9.9375 C 7.67425 10.0525 8.05875 10.054 8.34375 10 C 8.31875 9.093 8.50775 8.1865 9.34375 7.5625 C 10.22675 6.8575 11.09 5.9785 11 4.9375 C 10.98 3.9345 9.82175 3.14425 8.59375 3.03125 A 4.39 4.39 0 0 0 8.0625 3 z M 7.78125 11.208984 C 7.7612031 11.210359 7.74025 11.2135 7.71875 11.21875 C 7.11575 11.36675 6.75725 12.133 7.15625 12.625 C 7.56425 13.246 8.71025 13.078 8.90625 12.375 C 9.11025 11.828 8.59875 11.20975 7.96875 11.21875 C 7.8975 11.215 7.8413906 11.204859 7.78125 11.208984 z " />
</svg>

<svg height='16' width='16' xmlns='http://www.w3.org/2000/svg'>
    <path color='#363636' d='M8 0C3.576 0 0 3.576 0 8c0 4.424 3.576 8 8 8 4.424 0 8-3.576 8-8 0-4.424-3.576-8-8-8zm0 1c3.87 0 7 3.13 7 7s-3.13 7-7 7-7-3.13-7-7 3.13-7 7-7zm.063 2c-1.252-.024-2.564.47-2.97 1.438-.234.538-.006 1.5.782 1.5.46 0 .653-.315.688-.594.026-.212-.044-.388-.094-.563-.057-.199.173-.593.437-.75.221-.131.466-.179.5-.187.795-.196 1.576.255 1.907.781.33.526-.04 1.317-.563 2.094-.523.776-1.065 1.657-1.062 2.593 0 .357-.054.481-.032.626.018.115.403.116.688.062-.025-.907.164-1.814 1-2.438.883-.705 1.746-1.584 1.656-2.625-.02-1.003-1.178-1.793-2.406-1.906A4.39 4.39 0 0 0 8.063 3zm-.344 8.219c-.603.148-.962.914-.563 1.406.408.621 1.554.453 1.75-.25.204-.547-.307-1.165-.937-1.156-.095-.005-.164-.021-.25 0z' fill='#363636' overflow='visible' style='text-indent:0;text-transform:none;marker:none'/>
</svg>
